hornpipes/bobbycaseys.htmlhornpipes/bobbycaseys.htmlhornpipes/bobbycaseys.htmlhornpipes/bobbycaseys.htmlhornpipes/bobbycaseys.htmlhornpipes/bobbycaseys.htmlhornpipes/bobbycaseys.htmlhornpipes/bobbycaseys.htmlhornpipes/bobbycaseys.htmlPeadar O'Riada
hornpipes/bobbycaseys.htmlSource: James Kelly
hornpipes/bobbycaseys.htmlhornpipes/bobbycaseys.html<PRE>T:Sport
T:Sport
M:6/8
L:1/8
C:Peadar O'Riada
S:James Kelly
R:jig
Z:Devin McCabe
K:D
AdF ~A3|GcE GAB|AdF AFA|GED B/2c/2de|
!AdF ~A3|GcE GAB|cdc A/2B/2AG|1EDD D2 B:|2EDD D2 d|
!|:~c3 dcd|cec A2|gfed ged|cec A2 g|
!~f3 gfg|f/2g/2af d2 e|fdA dFA|1GEA D2 d:|2GEA DE/2F/2G||
!AGG AEE|AGE EDE|AGG Bce|dcA AGE|
!AGG AEE|AGE EDE|cAA A/2B/2AG|EAE DE/2F/2G|
!AGG AEE|AGE EDE|AGG Bce|dcA AGE|
!AGG AEE|AGE EDE|dDD AFA|GEA D3|

%  ABC2Win Version 2.1 7/22/2000
hornpipes/bobbycaseys.htmlhornpipes/bobbycaseys.htmlhornpipes/bobbycaseys.htmlhornpipes/bobbycaseys.htmlhornpipes/bobbycaseys.htmlhornpipes/bobbycaseys.htmlhornpipes/bobbycaseys.html